X: 253
T: Frank Walker's Strathspey
R: strathspey
M: C
L: 1/16
Z: 2012 John Chambers <jc:trillian.mit.edu>
B: J. Anderson "Budget of Strathspeys, Reels and Country Dances" (Early 1800s) p.25 #3
F: http://imslp.org/wiki/Anderson%27s_Budget_of_Strathspeys,_Reels_and_Country_Dances_(Various)
K: D
|:\
D3ED2d2 A2D2 (BA)(GF) | E3ee3d B3de2f2 |\
D3ED2d2 (A2D2)(A2F2) | (GAB2) (A2F2) (A2d2)(d2f2) :|
d3ed3d' a3f (gf).e.d | cdec d2A2 B3ee3f |\
d3ed3d' a2f2 gfed | (cd).e.c d2A2 B2d2d2A2 |
d2e2d2d'2 a2f2 gfed | cdec d2A2 (B2e2)(e2f2) |\
.d2.d'2.c'2.b2 .a2.^g2.=g2.f2 | .e2.d2.c2.B2 .A2.G2.F2.E2 |]

%%sep 2 1 500
%%sep 1 1 500

